X:1
T:Church of the Living God
T:Church of the Living God
T:PUBLIC DOMAIN
T:PUBLIC DOMAIN
Z:PUBLIC DOMAIN
%%score ( 1 2 ) ( 3 4 )
L:1/8
Q:3/8=50
M:6/8
K:G
V:1 treble nm="Soprano"
V:2 treble 
V:3 bass nm="Bass"
V:4 bass 
V:1
 [DG] [DG][DG] (F G)[DA] | [DG]3- [DG]2 [DA] | [GB]2 [GB] (([FA] [GB])) [Ac] | [GB]3- [GB]2 | %4
w: 1.~Church of the Liv- _ ing|God, * The|pil- lar of * the|truth, *|
w: 2.~Church of the Liv- _ ing|God, * We|wait no fu- _ ture|time, *|
w: 3.~Church of the Liv- _ ing|God, * So|peace- ful is * thy|rest, *|
w: 4.~Church of the Liv- _ ing|God, * Thy|sons are born * of|love; *|
 [DA] | [DG]2 [DG] [DG]2 [DG] | [FA]2 [FA] [FA]2 [FA] | [GB]2 G (A G)[DF] | [DG]3- [DG]2 | [DG] | %10
w: Thou|dost en- close with-|in thy walls The|ag- ed and * the|youth; *|Here|
w: But|now on earth with|joy we dwell With-|in thy courts * sub-|lime; *|Oh,|
w: For|God has placed thy|mem- bers all As|pleas- eth Him * the|best: *|No|
w: In|Heav- en’s gold- en|book of life Their|names are kept * a-|bove, *|And|
 [DF]2 [FA] [FA]2 [FA] | [FA]3- [FA]2 [FA] | [DG]2 [GB] [GB]2 [GB] | [GB]3- [GB]2 | [Gd] | %15
w: in thy light of|love, * The|saints with glad- ness|meet; *|Here|
w: thou dost tri- umph|now * Through|Je- sus’ pre- cious|blood; *|By|
w: en- vy mars thy|peace; * The|Fa- ther gave His|Son *|To|
w: God shall guard His|saints, * Pre-|serve them by His|grace, *|And|
 [Gd]2 [Gd] [DB]2 [DG] | [EG]2 [CE] [EG]2 [Ec] | (B A)[DG] [FA]2 [DF] | [DG]3- [DG]2 z |] %19
w: eve- ry tribe and|kin- dred come In|fel- _ low- ship so|sweet. *|
w: His own hand He’ll|hold thee up, And|bring * thee home to|God. *|
w: cleanse thee from each|vain de- sire, And|mold * thee all in|one. *|
w: naught but sin a-|gainst the Lord Shall|e’er * their names e-|rase. *|
V:2
 z3 D2 z | x6 | x6 | x5 | x | x6 | x6 | z2 G D2 z | x5 | x | x6 | x6 | x6 | x5 | x | x6 | x6 | %17
 D2 z z3 | x6 |] %19
V:3
 [G,B,] [G,B,][G,B,] (A, B,)[D,C] | [G,B,]3- [G,B,]2 [G,C] | [G,D]2 [G,D] [D,D]2 [D,D] | %3
 [G,D]3- [G,D]2 | [G,C] | [G,B,]2 [G,B,] [G,B,]2 [G,B,] | [D,D]2 [D,D] [D,D]2 [D,D] | %7
 [G,D]2 [B,,D] (D C)[D,A,] | [G,,B,]3- [G,,B,]2 | [G,,B,] | [D,A,]2 [D,C] [D,C]2 [D,C] | %11
 [D,C]3- [D,C]2 [D,C] | [G,B,]2 [G,D] [G,D]2 [G,D] | [G,D]3- [G,D]2 | [G,B,] | %15
 [G,B,]2 [G,B,] G,2 [B,,G,] | [C,C]2 [C,G,] [C,G,]2 [C,G,] | (G, C)[D,B,] [D,C]2 [D,A,] | %18
 [G,,B,]3- [G,,B,]2 z |] %19
V:4
 z3 D,2 z | x6 | x6 | x5 | x | x6 | x6 | z3 D,2 z | x5 | x | x6 | x6 | x6 | x5 | x | z3 G,2 z | %16
 x6 | D,2 z z3 | x6 |] %19

